X: 1
T: Heath And Heather
M: 4/4
L: 1/8
R: reel
K: Emin
Beed e2g2|AddB dfed|Beee geee|gaag abga|
.beed e2g2|AddB dfed|Beed e4-|e8|
g6a2|b7a/g/|f7e/d/|e8|
g6a2|b7a/g/|a7b/d'/|e'8|
